images_sukapura_svg/cmd/sc_fillshadow.svg

<svg height="16" viewBox="0 0 16 16" width="16" xmlns="http://www.w3.org/2000/svg" xmlns:xlink="http://www.w3.org/1999/xlink"><linearGradient id="a" gradientUnits="userSpaceOnUse" x1="-6" x2="-6" y1="40" y2="30"><stop offset="0" stop-color="#f5f5f5"/><stop offset=".25" stop-color="#fdfdfd"/><stop offset="1" stop-color="#fff"/></linearGradient><path d="m4 4c-.554 0-1 .4428827-1 .9921875v10.0156245c0 .549305.446.992188 1 .992188h11c.554 0 1-.442883 1-.992188v-10.0156245c0-.5493048-.446-.9921875-1-.9921875z" fill="#b7b7b9"/><path d="m1 1c-.554 0-1 .4428827-1 .9921875v10.0156245c0 .549305.446.992188 1 .992188h11c.554 0 1-.442883 1-.992188v-10.0156245c0-.5493048-.446-.9921875-1-.9921875zm0 1h11v10h-11z" fill="#98989d"/><path d="m1 2v10h11v-10z" fill="url(#a)"/></svg>

<?xml version="1.0" encoding="UTF-8" standalone="no"?>
<svg
   xmlns:dc="http://purl.org/dc/elements/1.1/"
   xmlns:cc="http://creativecommons.org/ns#"
   xmlns:rdf="http://www.w3.org/1999/02/22-rdf-syntax-ns#"
   xmlns:svg="http://www.w3.org/2000/svg"
   xmlns="http://www.w3.org/2000/svg"
   xmlns:xlink="http://www.w3.org/1999/xlink"
   xmlns:sodipodi="http://sodipodi.sourceforge.net/DTD/sodipodi-0.dtd"
   xmlns:inkscape="http://www.inkscape.org/namespaces/inkscape"
   viewBox="0 0 16 16"
   version="1.1"
   id="svg6"
   sodipodi:docname="sc_fillshadow.svg"
   inkscape:version="0.92.3 (unknown)"
   inkscape:export-filename="/home/rizmut/Dokumen/Rizmut/Github/libreoffice-style-sukapura/images_sukapura/cmd/sc_fillshadow.png"
   inkscape:export-xdpi="96"
   inkscape:export-ydpi="96"
   width="16"
   height="16">
  <metadata
     id="metadata12">
    <rdf:RDF>
      <cc:Work
         rdf:about="">
        <dc:format>image/svg+xml</dc:format>
        <dc:type
           rdf:resource="http://purl.org/dc/dcmitype/StillImage" />
        <dc:title></dc:title>
      </cc:Work>
    </rdf:RDF>
  </metadata>
  <defs
     id="defs10">
    <linearGradient
       id="a"
       gradientUnits="userSpaceOnUse"
       x1="10"
       x2="10"
       y1="16"
       y2="2"
       gradientTransform="translate(-12,28)">
      <stop
         offset="0"
         stop-color="#f5f5f5"
         id="stop1025" />
      <stop
         offset="0.25"
         stop-color="#fdfdfd"
         id="stop1027" />
      <stop
         offset="1"
         stop-color="#fff"
         id="stop1029" />
    </linearGradient>
    <linearGradient
       inkscape:collect="always"
       xlink:href="#a"
       id="linearGradient907"
       x1="6"
       y1="12"
       x2="6"
       y2="2"
       gradientUnits="userSpaceOnUse" />
  </defs>
  <sodipodi:namedview
     pagecolor="#ffffff"
     bordercolor="#666666"
     borderopacity="1"
     objecttolerance="10"
     gridtolerance="10"
     guidetolerance="10"
     inkscape:pageopacity="0"
     inkscape:pageshadow="2"
     inkscape:window-width="1366"
     inkscape:window-height="706"
     id="namedview8"
     showgrid="true"
     inkscape:zoom="9.8333333"
     inkscape:cx="9.2025161"
     inkscape:cy="11.328662"
     inkscape:window-x="0"
     inkscape:window-y="0"
     inkscape:window-maximized="1"
     inkscape:current-layer="svg6">
    <inkscape:grid
       type="xygrid"
       id="grid822"
       spacingx="0.5"
       spacingy="0.5"
       empspacing="2" />
  </sodipodi:namedview>
  <g
     id="g938">
    <path
       sodipodi:nodetypes="sssssssss"
       inkscape:connector-curvature="0"
       style="fill:#b7b7b9;fill-opacity:1;stroke:none;stroke-opacity:1"
       d="M 4,4 C 3.446,4 3,4.4428827 3,4.9921875 V 15.007812 C 3,15.557117 3.446,16 4,16 h 11 c 0.554,0 1,-0.442883 1,-0.992188 V 4.9921875 C 16,4.4428827 15.554,4 15,4 Z"
       id="path909" />
    <g
       id="g932">
      <path
         style="fill:#98989d;fill-opacity:1;stroke:none;stroke-opacity:1"
         d="M 1 1 C 0.446 1 2.4757973e-17 1.4428827 0 1.9921875 L 0 12.007812 C 0 12.557117 0.446 13 1 13 L 12 13 C 12.554 13 13 12.557117 13 12.007812 L 13 1.9921875 C 13 1.4428827 12.554 1 12 1 L 1 1 z M 1 2 L 12 2 L 12 12 L 1 12 L 1 2 z "
         id="rect896" />
      <path
         inkscape:connector-curvature="0"
         style="fill:url(#linearGradient907);stroke:none;stroke-linecap:round;stroke-linejoin:round;fill-opacity:1"
         d="M 1,2 V 12 H 12 V 2 Z"
         id="path4-7"
         sodipodi:nodetypes="ccccc" />
    </g>
  </g>
</svg>
